T: Reel De Mattawa
M: 4/4
L: 1/8
K: Edor
|: B2 eB gBeB | B/B/B eB gBeB | d2 fd gdfd | Adfn g2 g f2 |
B2 eB gBeB | B/B/B eB gBeB | f2fg fedc |1 Bc dB e2 e2 :|2 Bc dB e2 |
|:ef | gefd ecdB | ABAF D2FD | EFGA B2ef | gfed A2ef |
gefd ecdB | ABAF D2FD | EFGA B2AG |1 FAGF E2 :|2 FAGF E2 E2 ||
